launcher/android/assets/skins/day/svg/mapMultiQuestion0.svg

<svg enable-background="new 0 0 47.50 48.97" height="48.9744" viewBox="0 0 47.5 48.97" width="47.5004" xmlns="http://www.w3.org/2000/svg" xmlns:xlink="http://www.w3.org/1999/xlink"><linearGradient id="a" gradientTransform="matrix(-.085460466379 -.99634156226 .99634156226 -.085460466379 -.434239207587 1.538318871419)" gradientUnits="objectBoundingBox" x1=".48889" x2="1.48431" y1=".968453" y2=".968453"><stop offset="0" stop-color="#07620c"/><stop offset="1" stop-color="#389d3e"/></linearGradient><path d="m22.1421 9.2135-.067-2.8811 1.0385-2.51245 2.7807-2.24463 3.7522-1.072024 2.6802.468994 2.278 1.07202 2.0102 1.34009 2.0101 1.94311.737 2.54615-.67 2.27804-1.6081 1.273-2.2781.4692-1.0051.8709-.201 2.4121 2.2112 2.144 11.1895 4.8914-2.5349 5.1704-2.0325-.8264-1.6974-.938-1.6528-1.2507-.9826-1.2508-1.964-.82-1.699-.2073-1.6527.8039-1.5634 1.6973-1.4071 2.1665-.6923 1.8984.067 2.0325.5583 1.7644.8934 1.4741 1.7421 1.4292 1.7421.0896 1.9654-.1342 3.6405-.0669-.4356 2.9497-4.9581 10.2834-12.919-6.2363.804-4.8911 2.8015-1.4021.804-2.0772-.201-2.8811-1.0051-2.1443-2.2781-1.7419-2.6801-.938-2.8812.1338-1.8761.5361-2.3451 1.407-1.206 1.2061-.2681 1.6081.335 1.9431 1.0051 2.01-.67 1.4742-3.28321.469-7.97339-3.7522 10.5195-25.72904 10.5196 4.69014 1.005-.268z" fill="url(#a)" stroke="#00c800" stroke-linejoin="round"/></svg>

﻿<?xml version="1.0" encoding="utf-8"?>
<!DOCTYPE svg PUBLIC "-//W3C//DTD SVG 1.1//EN" "http://www.w3.org/Graphics/SVG/1.1/DTD/svg11.dtd">
<svg xmlns="http://www.w3.org/2000/svg" xmlns:xlink="http://www.w3.org/1999/xlink" version="1.1" baseProfile="full" width="47.5004" height="48.9744" viewBox="0 0 47.50 48.97" enable-background="new 0 0 47.50 48.97" xml:space="preserve">
	<linearGradient id="SVGID_Fill1_" gradientUnits="objectBoundingBox" x1="0.48889" y1="0.968453" x2="1.48431" y2="0.968453" gradientTransform="rotate(-94.902504 0.488890 0.968453)">
		<stop offset="0" stop-color="#07620C" stop-opacity="1"/>
		<stop offset="1" stop-color="#389D3E" stop-opacity="1"/>
	</linearGradient>
	<path fill="url(#SVGID_Fill1_)" stroke-linejoin="round" stroke="#00C800" stroke-opacity="1" d="M 22.1421,9.2135L 22.0751,6.3324L 23.1136,3.81995L 25.8943,1.57532L 29.6465,0.503296L 32.3267,0.97229L 34.6047,2.04431L 36.6149,3.3844L 38.625,5.32751L 39.362,7.87366L 38.692,10.1517L 37.0839,11.4247L 34.8058,11.8939L 33.8007,12.7648L 33.5997,15.1769L 35.8109,17.3209L 47.0004,22.2123L 44.4655,27.3827L 42.433,26.5563L 40.7356,25.6183L 39.0828,24.3676L 38.1002,23.1168L 36.1362,22.2968L 34.4372,22.0895L 32.7845,22.8934L 31.2211,24.5907L 29.814,26.7572L 29.1217,28.6556L 29.1887,30.6881L 29.747,32.4525L 30.6404,33.9266L 32.3825,35.3558L 34.1246,35.4454L 36.09,35.3112L 39.7305,35.2443L 39.2949,38.194L 34.3368,48.4774L 21.4178,42.2411L 22.2218,37.35L 25.0233,35.9479L 25.8273,33.8707L 25.6263,30.9896L 24.6212,28.8453L 22.3431,27.1034L 19.663,26.1654L 16.7818,26.2992L 14.9057,26.8353L 12.5606,28.2423L 11.3546,29.4484L 11.0865,31.0565L 11.4215,32.9996L 12.4266,35.0096L 11.7566,36.4838L 8.47339,36.9528L 0.5,33.2006L 11.0195,7.47156L 21.5391,12.1617L 22.5441,11.8937L 22.1421,9.2135 Z "/>
</svg>
